X: 486
T: Cotton Baggin'
B: jims roots
M:C|
L:1/8
R: reel
Q: 1/4=100
K:G
V:1 
D2 | "G"G2Bc dBAF | GBBA [G2B]DF | G2 Bc dBAG | "D" FAAB [D2A] FG |
A2D2 cDBD | FAAB A2 FE | DEFG ABAF | "G"G3F G2 :|
|:d2 | "G"[B2g][B2g] [Bb][Bg][Ba][Bg] |[Be]([Bg][Bg])[Ba] [B3g]([Bg] | [B2g])[B2g] [Bb][Bg][Ba][Bg] | "D"[Ae]([Aa] [Aa])[Ab] [A2a] ([A2a] |
"D"[A2a])[A2a] [Aa][Ab] [A2a] | [Ae]([Af] [Af])[Ae] [A2f] fe | dega bg a2 | "G"[B3g] [Ba][B2g] :|
% abcbook-tune_id 6298c245d9545de6bbdf291f


% abcbook-boost 0
% abcbook-tablature 
% abcbook-transpose 
% abcbook-lastupdated 1654178373794
% abcbook-soundfonts 
% abcbook-repeats 1


